src/imagens/header/icon.github.svg

<svg width="26" height="29" viewBox="0 0 26 29" fill="none" xmlns="http://www.w3.org/2000/svg">
<g filter="url(#filter0_i_135_526)">
<path d="M2.69464 22.9181L11.2023 27.5973C12.4115 28.2624 13.8781 28.2572 15.0826 27.5835L23.4141 22.9235C24.6783 22.2164 25.4615 20.881 25.4615 19.4325L25.4615 9.51297C25.4615 8.06442 24.6783 6.72906 23.4141 6.02194L15.0826 1.36194C13.8781 0.688274 12.4115 0.683046 11.2023 1.34811L2.69464 6.02731C1.41645 6.73032 0.622314 8.07341 0.622314 9.53217L0.622314 19.4133C0.622314 20.872 1.41645 22.2151 2.69464 22.9181Z" fill="url(#paint0_linear_135_526)"/>
</g>
<path d="M12.9641 8.75C14.456 8.75 15.8867 9.34263 16.9416 10.3975C17.9965 11.4524 18.5891 12.8832 18.5891 14.375C18.5891 15.8668 17.9965 17.2976 16.9416 18.3525C15.8867 19.4074 14.456 20 12.9641 20C11.4723 20 10.0415 19.4074 8.98664 18.3525C7.93174 17.2976 7.33911 15.8668 7.33911 14.375C7.33911 12.8832 7.93174 11.4524 8.98664 10.3975C10.0415 9.34263 11.4723 8.75 12.9641 8.75ZM12.9641 9.66875C10.3794 9.66875 8.27661 11.7716 8.27661 14.375C8.27541 15.3645 8.58611 16.3292 9.16456 17.132C9.74302 17.9348 10.5598 18.5349 11.4988 18.8469C11.5128 18.849 11.5269 18.8505 11.541 18.8516C11.7313 18.8609 11.8026 18.7306 11.8026 18.6172L11.796 17.8166C10.4929 18.1006 10.2172 17.1847 10.2172 17.1847C10.0044 16.6409 9.69693 16.4966 9.69693 16.4966C9.2713 16.2041 9.7288 16.2097 9.7288 16.2097C10.071 16.2341 10.2951 16.4797 10.3926 16.6128L10.4469 16.6953C10.8651 17.4144 11.5438 17.2072 11.811 17.0872C11.8541 16.7825 11.9741 16.5753 12.1082 16.4572C11.0676 16.3381 9.97349 15.9341 9.97349 14.1303C9.97349 13.6166 10.1563 13.1966 10.4563 12.8666L10.4282 12.7869C10.3682 12.5966 10.2857 12.17 10.5022 11.6206L10.5397 11.6141C10.656 11.5991 11.0535 11.6019 11.7913 12.1034C12.1735 11.9989 12.5679 11.9456 12.9641 11.945C13.3626 11.9469 13.7638 11.9994 14.1379 12.1044C15.0332 11.495 15.426 11.6206 15.426 11.6206C15.681 12.2694 15.5197 12.7475 15.4729 12.8675C15.7729 13.1956 15.9538 13.6166 15.9538 14.1303C15.9538 15.9397 14.8579 16.3372 13.8135 16.4534C13.9822 16.5988 14.1322 16.8866 14.1322 17.3253L14.1266 18.6172C14.1266 18.7391 14.2063 18.8816 14.4294 18.8469C15.3684 18.5349 16.1852 17.9348 16.7637 17.132C17.3421 16.3292 17.6528 15.3645 17.6516 14.375C17.6516 11.7716 15.5488 9.66875 12.9641 9.66875Z" fill="#0D0D0D"/>
<defs>
<filter id="filter0_i_135_526" x="0.622314" y="0.853027" width="25.2566" height="27.6567" filterUnits="userSpaceOnUse" color-interpolation-filters="sRGB">
<feFlood flood-opacity="0" result="BackgroundImageFix"/>
<feBlend mode="normal" in="SourceGraphic" in2="BackgroundImageFix" result="shape"/>
<feColorMatrix in="SourceAlpha" type="matrix" values="0 0 0 0 0 0 0 0 0 0 0 0 0 0 0 0 0 0 127 0" result="hardAlpha"/>
<feOffset dx="0.417465" dy="0.417465"/>
<feGaussianBlur stdDeviation="0.626197"/>
<feComposite in2="hardAlpha" operator="arithmetic" k2="-1" k3="1"/>
<feColorMatrix type="matrix" values="0 0 0 0 0 0 0 0 0 0 0 0 0 0 0 0 0 0 0.25 0"/>
<feBlend mode="normal" in2="shape" result="effect1_innerShadow_135_526"/>
</filter>
<linearGradient id="paint0_linear_135_526" x1="0.622314" y1="14.4727" x2="25.4615" y2="14.4727" gradientUnits="userSpaceOnUse">
<stop stop-color="#00E6AE"/>
<stop offset="1" stop-color="#00CC9B"/>
</linearGradient>
</defs>
</svg>

<svg xmlns="http://www.w3.org/2000/svg" width="26" height="29" fill="none"><g filter="url(#a)"><path fill="url(#b)" d="m2.695 22.918 8.507 4.68a4 4 0 0 0 3.88-.014l8.332-4.66a4 4 0 0 0 2.047-3.491v-9.92a4 4 0 0 0-2.047-3.491l-8.331-4.66a4 4 0 0 0-3.88-.014l-8.508 4.68A4 4 0 0 0 .622 9.531v9.881a4 4 0 0 0 2.073 3.505Z"/></g><path fill="#0D0D0D" d="M12.964 8.75a5.625 5.625 0 1 1 0 11.25 5.625 5.625 0 0 1 0-11.25Zm0 .919c-2.585 0-4.687 2.103-4.687 4.706a4.706 4.706 0 0 0 3.222 4.472.598.598 0 0 0 .042.005c.19.009.262-.121.262-.235l-.007-.8c-1.303.284-1.579-.632-1.579-.632-.213-.544-.52-.688-.52-.688-.426-.293.032-.287.032-.287.342.024.566.27.664.403l.054.082c.418.72 1.097.512 1.364.392.043-.305.163-.512.297-.63-1.04-.119-2.135-.523-2.135-2.327 0-.513.183-.933.483-1.263l-.028-.08c-.06-.19-.142-.617.074-1.166l.038-.007c.116-.015.514-.012 1.251.49a4.473 4.473 0 0 1 1.173-.159c.399.002.8.054 1.174.16.895-.61 1.288-.484 1.288-.484.255.648.094 1.127.047 1.246.3.329.48.75.48 1.263 0 1.81-1.095 2.207-2.14 2.323.17.146.32.434.32.872l-.006 1.292c0 .122.08.265.302.23a4.707 4.707 0 0 0 3.223-4.472c0-2.603-2.103-4.706-4.688-4.706Z"/><defs><linearGradient id="b" x1=".622" x2="25.462" y1="14.473" y2="14.473" gradientUnits="userSpaceOnUse"><stop stop-color="#00E6AE"/><stop offset="1" stop-color="#00CC9B"/></linearGradient><filter id="a" width="25.257" height="27.657" x=".622" y=".853" color-interpolation-filters="sRGB" filterUnits="userSpaceOnUse"><feFlood flood-opacity="0" result="BackgroundImageFix"/><feBlend in="SourceGraphic" in2="BackgroundImageFix" result="shape"/><feColorMatrix in="SourceAlpha" result="hardAlpha" values="0 0 0 0 0 0 0 0 0 0 0 0 0 0 0 0 0 0 127 0"/><feOffset dx=".417" dy=".417"/><feGaussianBlur stdDeviation=".626"/><feComposite in2="hardAlpha" k2="-1" k3="1" operator="arithmetic"/><feColorMatrix values="0 0 0 0 0 0 0 0 0 0 0 0 0 0 0 0 0 0 0.25 0"/><feBlend in2="shape" result="effect1_innerShadow_135_526"/></filter></defs></svg>
